X:432
T:Belgian Polka
M:2/2
L:1/8
Q:1/8=150
K:G
B3 A G2 E2|D2 E2 G4|F2 G2 A4|G2 A2 B4|
B3 A G2 E2|D2 E2 G4|F2 G2 A2 F2|G4 G4:||
A2 AG F2 A2|G2 A2 B4|A2 AG F2 A2|G2 E2 D4|
A2 AG F2 A2|G2 A2 B4|A2 AG F2 A2|G2 F2 G4:||
